X: 363
T: The Marriage Morn
B: John Pringle "Collection of Reels Strathspeys & Jigs", 1801 p.36#3
Z: 2011 John Chambers <jc:trillian.mit.edu>
Q: "Slow with Expression"
R: jig, air
M: 6/8
L: 1/8
K: Eb
V: 1
B/A/ | G2B A2c | {c}B2A ~G2B | ~F2G ~E2B | ~F2G E2B, | AGA{G}F2B, | AGA {G}F2B, |
BcB A2A | (GA).F {A}G2E | FG=A B2~B | c2=A B2B | A2~A G2B | A2~A G2B |
({c}BA)G {G}~F2B | {c}B=AB B,2_d | _dc=B {B}~c2_B/A/ | GFG (A>B)c | B>cA G2~F | E3- E2 |]
V: 2 clef=bass middle=d
z | E3 A3 | B2=B c2z | B3 e3 | b2B e2z | zbb bbb | zbb bbb |
e3 f3 | b2B e2z | B2f g2=e | f2F B2z | b2B e3 | d2f e3 |
ga=a b2z | Bdf B2z | b2g a2z | e3 a3 | g2a b2B | EGB E2 |]

%%sep 2 1 500

